X: 18527
T: I Have A Bonnet Trimmed With Blue
R: polka
M: 2/4
K: Gmajor
|:E/F/|G>A Be|dG B2|de/d/ cA|GA BB|
GA Be|dG B2|de/d/ cA|1 AG/F/ G:|2 AG/F/ G2:|
|:DE/F/ GF/E/|DG B2|de/d/ cA|GA B2|
DE/F/ GF/E/|DG B2|de/d/ cA|1 AG/F/ G2:|2 AG/F/ G||

